22x22/actions/view-right-new.svg

<svg xmlns="http://www.w3.org/2000/svg" viewBox="0 0 22 22"><path style="fill:currentColor;fill-opacity:1;stroke:none;color:#5d656b" d="M3 3v16h16V3H3zm1 4h4v11H4V7zm5 0h9v11H9V7zm4 3v2h-2v1h2v2h1v-2h2v-1h-2v-2h-1z"/></svg>

<svg xmlns="http://www.w3.org/2000/svg" viewBox="0 0 22 22">
  <defs id="defs3051">
    <style type="text/css" id="current-color-scheme">
      .ColorScheme-Text {
        color:#5d656b;
      }
      </style>
  </defs>
 <path 
    style="fill:currentColor;fill-opacity:1;stroke:none" 
    d="M 3 3 L 3 19 L 19 19 L 19 3 L 3 3 z M 4 7 L 8 7 L 8 18 L 4 18 L 4 7 z M 9 7 L 18 7 L 18 18 L 9 18 L 9 7 z M 13 10 L 13 12 L 11 12 L 11 13 L 13 13 L 13 15 L 14 15 L 14 13 L 16 13 L 16 12 L 14 12 L 14 10 L 13 10 z "
	class="ColorScheme-Text"
    />  
</svg>
